X:229
T:Thresherman - Mutton
%%VWML:SBG-1-2-451-0
F:http://www.vwml.org/record/SBG/1/2/451
Z:Original Sibelius transcriptions by M. & S. Graebe
M:2/4
I:linebreak $
K:C
V:1 treble nm="P1"
V:1
 C2 | Cccc | B2 c E/F/ | GGGE | C3 E | EGAG | GGGB | cccA | G6 GF |$ DDGG | AAGG | Bcec | B3 G | %13
 cecB | cGGG | FEDG | C4 | %17

